svg_80x80/bottle.svg

<svg viewBox="0 0 80 80" xmlns="http://www.w3.org/2000/svg">
<rect width="100%" height="100%" fill="white"/>
<path d="M35.5405 26.5676C39.0593 20.708 42.5982 14.7964 46.1572 8.89671C47.8384 6.11522 49.4072 5.72245 52.252 7.39775C56.6054 9.95881 60.9387 12.5479 65.2721 15.145C68.3977 17.0207 68.7267 18.4796 66.8248 21.6379C63.3702 27.3732 59.9276 33.1205 56.4409 38.924C60.068 46.515 60.3007 54.13 56.1801 61.5887C52.9782 67.3841 48.0229 71.1516 41.5911 72.8349C28.5509 76.2456 15.0333 67.8931 12.4814 55.0959C9.5765 40.4991 20.137 26.9363 35.5405 26.5676ZM36.7041 28.7038C25.5176 28.4834 17.4728 35.5172 14.941 44.0862C12.3089 52.9877 15.7876 62.6187 23.359 67.7569C31.2392 73.1034 41.3383 72.7828 48.8856 66.9553C52.4766 64.1818 54.8881 60.6028 56.176 56.2942C58.0057 50.1982 57.0868 44.3948 54.0094 38.9721C58.126 32.0464 62.1625 25.261 66.3554 18.2111C60.393 14.6761 54.9442 11.4457 49.1544 8.01096C44.8973 15.0849 40.8167 21.8703 36.7041 28.7038Z" fill="#020202"/>
<path d="M38.4301 32.363C37.764 32.1666 37.1261 32.1586 36.4079 32.6435H36.4119C35.8501 33.5012 35.8782 34.2868 36.3838 35.0443C37.1181 35.6535 37.8563 35.6294 38.6267 35.2647C39.6017 34.2146 39.4613 33.2687 38.4301 32.363Z" fill="#28B09F"/>
<path d="M48.9706 36.8759C48.9465 38.6835 47.4659 40.0822 45.6203 40.0381C43.7986 39.9981 42.4264 38.5312 42.4786 36.6755C42.5267 34.8118 43.9351 33.4852 45.8209 33.5253C47.6706 33.5654 48.9987 34.9761 48.9706 36.8719V36.8759Z" fill="#28B09F"/>
<path d="M54.8045 46.6672C56.8228 51.9777 53.653 60.739 48.3366 64.8431C40.9298 70.5544 31.7937 70.879 24.4189 65.6968C17.9751 61.1679 14.6649 52.3745 16.9319 45.4007C17.8011 45.497 18.68 45.594 19.5626 45.6914C20.8106 45.8291 22.0659 45.9676 23.3115 46.1061C25.402 41.5852 26.2726 41.2766 30.9832 43.3447C32.1628 39.3969 34.1128 37.5372 37.0057 37.5973C39.8986 37.6575 41.6681 39.4089 42.7434 43.3286C44.898 42.8076 46.2943 43.7094 47.0406 45.8095C47.9552 45.9181 48.8786 45.9751 49.8002 46.0319C51.4987 46.1367 53.1907 46.2411 54.8085 46.6672H54.8045Z" fill="#28B09F"/>
</svg>

<svg xmlns="http://www.w3.org/2000/svg" viewBox="0 0 80 80">
  <rect width="100%" height="100%" fill="#fff"/>
  <path fill="#020202" d="M35.5 26.6 46.2 8.9c1.6-2.8 3.2-3.2 6-1.5l13 7.7c3.2 2 3.5 3.4 1.6 6.5L56.4 39a23.6 23.6 0 0 1-14.8 34c-13 3.3-26.6-5-29.1-17.8a23.7 23.7 0 0 1 23-28.5Zm1.2 2.1a21.4 21.4 0 0 0-13.3 39A21.5 21.5 0 0 0 54 39l12.4-20.8L49.2 8 36.7 28.7Z"/>
  <path fill="#28B09F" d="M38.4 32.4c-.6-.2-1.3-.2-2 .2-.5.9-.5 1.7 0 2.4.7.7 1.5.6 2.2.3 1-1 .9-2-.2-3ZM49 36.9c0 1.8-1.5 3.2-3.4 3.1a3.2 3.2 0 0 1-3.1-3.3c0-1.9 1.4-3.2 3.3-3.2S49 35 49 37ZM54.8 46.7c2 5.3-1.1 14-6.5 18.1-7.4 5.8-16.5 6-23.9.9-6.4-4.5-9.7-13.3-7.5-20.3l2.7.3 3.7.4c2.1-4.5 3-4.8 7.7-2.8 1.2-3.9 3.1-5.8 6-5.7 2.9 0 4.7 1.8 5.7 5.7 2.2-.5 3.6.4 4.3 2.5l2.8.2c1.7.1 3.4.2 5 .7Z"/>
</svg>
